X:1
T:Carthy's
L:1/8
M:4/4
I:linebreak $
K:G
V:1 treble 
V:1
 AD (3DDD FGAB | cAdB cAGE | AD (3DDD FGAB | cAGE FD D2 | AD (3DDD FGAB |$ cAdB cdeg | %6
 (3fga ge dcAF | cAGE FD D2 :|[K:D] defg adfa | gefd edBd |$ defg adfd | gfed Beef | %12
 gfec (3ddd fd | (3ddd fd ecAd | (3fga ge dcAG |$ FAGE FD D2 :| %16
